public/img/ico-facebook.svg

<svg width="61" height="61" viewBox="0 0 61 61" xmlns="http://www.w3.org/2000/svg"><title>ico-facebook</title><path d="M57.378 0H3.352C1.502 0 0 1.5 0 3.354V57.38c0 1.852 1.502 3.353 3.352 3.353h29.086v-23.52h-7.914v-9.166h7.914v-6.76c0-7.843 4.79-12.116 11.787-12.116 3.355 0 6.232.254 7.07.36v8.2h-4.853c-3.805 0-4.54 1.81-4.54 4.465v5.85h9.08l-1.188 9.167h-7.892v23.52h15.475c1.852 0 3.355-1.502 3.355-3.35V3.35C60.732 1.5 59.23 0 57.378 0z" fill="#3B5998"/></svg>

<?xml version="1.0" encoding="UTF-8"?>
<svg width="61px" height="61px" viewBox="0 0 61 61" version="1.1" xmlns="http://www.w3.org/2000/svg" xmlns:xlink="http://www.w3.org/1999/xlink">
    <!-- Generator: Sketch 47.1 (45422) - http://www.bohemiancoding.com/sketch -->
    <title>ico-facebook</title>
    <desc>Created with Sketch.</desc>
    <defs></defs>
    <g id="Page-1" stroke="none" stroke-width="1" fill="none" fill-rule="evenodd">
        <g id="ico-facebook" fill-rule="nonzero" fill="#3B5998">
            <path d="M57.378,0.001 L3.352,0.001 C1.502,0.001 0,1.5 0,3.353 L0,57.379 C0,59.232 1.502,60.733 3.352,60.733 L32.438,60.733 L32.438,37.214 L24.524,37.214 L24.524,28.047 L32.438,28.047 L32.438,21.287 C32.438,13.444 37.227,9.171 44.225,9.171 C47.58,9.171 50.457,9.422 51.296,9.531 L51.296,17.729 L46.442,17.731 C42.637,17.731 41.903,19.54 41.903,22.193 L41.903,28.044 L50.981,28.044 L49.794,37.21 L41.902,37.21 L41.902,60.73 L57.377,60.73 C59.229,60.73 60.732,59.227 60.732,57.379 L60.732,3.351 C60.731,1.5 59.23,0.001 57.378,0.001 Z" id="Shape"></path>
        </g>
    </g>
</svg>
